svg/surfing.svg

<svg xmlns="http://www.w3.org/2000/svg" viewBox="0 0 24 24"><path d="M22 23v-2c-1.41.05-2.78-.1-4-1-1.76 1.25-4.23 1.25-6 0-1.77 1.25-4.24 1.25-6 0-1.22.9-2.59 1.05-4 1v2c1.37.05 2.78-.06 4-.75 1.84 1 4.15 1 6 0 1.85 1 4.16 1 6 0 1.22.69 2.63.8 4 .75m-1.5-11.03V9.95c-1.76.01-3.5-.95-4.32-2.54l-.89-1.55c-.29-.46-.74-.75-1.22-.89L8.5 3.94 5 6.38 6.13 8l2.82-1.9 2.02.33-2.16 1.45C8.21 8.29 7.88 9 8 9.71l.53 3.1C7.12 12.26 3.21 11 3 13.23c.36 2.44 3.07 4.09 5.06 5.59 1.44.47 3-.24 3.94-1.36 1.32 1.7 3.89 2 5.5.54-.47-.42-1-.85-1.5-1.2v-3.85l-3.81-3 2.25-1.51C15.62 10.59 18 12 20.5 11.97M14 14v1.47c0-.04-2.34-1.31-2.19-1.23l-1.08-.54-.42-2.62zm5-10.5c0 1.11-.89 2-2 2s-2-.89-2-2 .9-2 2-2 2 .9 2 2"/></svg>

<svg xmlns="http://www.w3.org/2000/svg" id="mdi-surfing" viewBox="0 0 24 24"><path d="M22 23V21C20.59 21.05 19.22 20.9 18 20C16.24 21.25 13.77 21.25 12 20C10.23 21.25 7.76 21.25 6 20C4.78 20.9 3.41 21.05 2 21V23C3.37 23.05 4.78 22.94 6 22.25C7.84 23.25 10.15 23.25 12 22.25C13.85 23.25 16.16 23.25 18 22.25C19.22 22.94 20.63 23.05 22 23M20.5 11.97V9.95C18.74 9.96 17 9 16.18 7.41L15.29 5.86C15 5.4 14.55 5.11 14.07 4.97L8.5 3.94L5 6.38L6.13 8L8.95 6.1L10.97 6.43L8.81 7.88C8.21 8.29 7.88 9 8 9.71L8.53 12.81C7.12 12.26 3.21 11 3 13.23C3.36 15.67 6.07 17.32 8.06 18.82C9.5 19.29 11.06 18.58 12 17.46C13.32 19.16 15.89 19.46 17.5 18C17.03 17.58 16.5 17.15 16 16.8V12.95L12.19 9.95L14.44 8.44C15.62 10.59 18 12 20.5 11.97M14 14V15.47C14 15.43 11.66 14.16 11.81 14.24L10.73 13.7L10.31 11.08L14 14M19 3.5C19 4.61 18.11 5.5 17 5.5S15 4.61 15 3.5 15.9 1.5 17 1.5 19 2.4 19 3.5Z" /></svg>
